X: 487
T: Bûselikaşîrân Seyir
C: Şefik Gürmeriç
O: Turkey
F: http://compmusic.upf.edu/node/140
N: buselikasiran--seyir--sofyan--1--sefik_gurmeric
N: makam= buselikasiran
N: form= seyir
N: usul= sofyan = 4/4
M: 4/4
L: 1/16
K: C    
Q: 1/4=60
%%MIDI tuningsystem comma53
e3d c2d2 e8  | z2^3/4f2 e2fg agfe d4  | \
w:   |   | 
z2g2 ^3/4f2g2 ac'ba g2fe  | 
w:   | 
e6d2 dccd e4  | z4 d2e2 e4 a4  | g2f2 e2d2 dccB c4  | 
w:   |   |   | 
Bcdf e2d2 cdcB A4  | BccB BAA^G A8  | \
w:   |   | 
G2c4d2 _7/8edcB c4  | 
w:   | 
g2^f2 _7/8e2d2 dcBc d4  | z2f4fe e2d2 d2c2  | \
w:   |   | 
c2B2 c2d2 edcB A4  | 
w:   | 
z4 ^3/4F2G2 A4 A4  | A2_B4A2 d^cBA G^3/4FG2  | \
w:   |   | 
z4 c2c2 c2B4A2  | 
w:   | 
A2G2 G2^3/4F2 F3E D4  | z4 E2^3/4F2 E4 F4  | \
w:   |   | 
G4 A2B2 A4 G2^3/4F2  | ^3/4F3E D2E2 D2G4FE  | 
w:   |   | 
E16  | |


